src/symbolic/status/arch-updates-symbolic.svg

<svg xmlns="http://www.w3.org/2000/svg" width="16" height="16"><path class="warning" d="M16 13.5a1.5 1.5 0 0 1-1.5 1.5 1.5 1.5 0 0 1-1.5-1.5 1.5 1.5 0 0 1 1.5-1.5 1.5 1.5 0 0 1 1.5 1.5z" fill="#5294e2"/><path d="M8 1C6.175 2.725 3 4 2 4.25 2 9 4.25 14.25 8 15c3.75-.75 6-6 6-10.75C13 4 9.825 2.725 8 1zm0 3a1 1 0 0 1 1 1 1 1 0 0 1-1 1 1 1 0 0 1-1-1 1 1 0 0 1 1-1zM6 7h3v5H7V8H6V7z" fill="#5d656b"/></svg>

<svg xmlns="http://www.w3.org/2000/svg" width="16" height="16" version="1.1">
 <path style="fill:#5294e2" class="warning" d="M 16,13.5 A 1.5,1.5 0 0 1 14.5,15 1.5,1.5 0 0 1 13,13.5 1.5,1.5 0 0 1 14.5,12 1.5,1.5 0 0 1 16,13.5 Z"/>
 <path style="fill:#444444" d="M 8 1 C 6.175 2.725 3 4 2 4.25 C 2 9 4.25 14.25 8 15 C 11.75 14.25 14 9 14 4.25 C 13 4 9.825 2.725 8 1 z M 8 4 A 1 1 0 0 1 9 5 A 1 1 0 0 1 8 6 A 1 1 0 0 1 7 5 A 1 1 0 0 1 8 4 z M 6 7 L 7 7 L 9 7 L 9 12 L 7 12 L 7 8 L 6 8 L 6 7 z"/>
</svg>
